X:569
T:Miss Maule of Panmure
R:Reel
C:Nathaniel Gow
B:The Athole Collection
M:C|
L:1/8
K:C
c|A/B/c d/c/B/A/ GEE>c|GcEc GEEc|A/B/c d/c/B/A/ GEEc|GEcE EDD:|
f|e/f/g g>f ecce|A/B/c Gc EcGc|e/f/g g>f ecce|d>B cE EDDf|e/f/g g>f ecce|
A/B/c Gc EcGc|egfd ecdB|cBcE EDD||

